www/assets/icons/accessible_forward.svg

<svg width="24" height="24" viewBox="0 0 24 24" xmlns="http://www.w3.org/2000/svg" fill='currentColor'><path d="M17.5 6.27002C18.6046 6.27002 19.5 5.37459 19.5 4.27002C19.5 3.16545 18.6046 2.27002 17.5 2.27002C16.3954 2.27002 15.5 3.16545 15.5 4.27002C15.5 5.37459 16.3954 6.27002 17.5 6.27002Z"/><path d="M14.5 16.73H12.5C12.5 18.38 11.15 19.73 9.5 19.73C7.85 19.73 6.5 18.38 6.5 16.73C6.5 15.08 7.85 13.73 9.5 13.73V11.73C6.74 11.73 4.5 13.97 4.5 16.73C4.5 19.49 6.74 21.73 9.5 21.73C12.26 21.73 14.5 19.49 14.5 16.73ZM17.5 13.23H15.64L17.31 9.56002C17.92 8.23002 16.94 6.73002 15.46 6.73002H10.26C9.45 6.73002 8.72 7.20002 8.39 7.93002L7.72 9.73002L9.64 10.26L10.29 8.73002H12.5L10.67 12.83C10.07 14.16 11.06 15.73 12.52 15.73H17.5V20.73H19.5V15.23C19.5 14.13 18.6 13.23 17.5 13.23Z"/></svg>

<svg xmlns="http://www.w3.org/2000/svg" width="24" height="24" viewBox="0 0 24 24" fill='currentColor'><path d="M17.5 6.27a2 2 0 1 0 0-4 2 2 0 0 0 0 4m-3 10.46h-2c0 1.65-1.35 3-3 3s-3-1.35-3-3 1.35-3 3-3v-2c-2.76 0-5 2.24-5 5s2.24 5 5 5 5-2.24 5-5m3-3.5h-1.86l1.67-3.67c.61-1.33-.37-2.83-1.85-2.83h-5.2c-.81 0-1.54.47-1.87 1.2l-.67 1.8 1.92.53.65-1.53h2.21l-1.83 4.1c-.6 1.33.39 2.9 1.85 2.9h4.98v5h2v-5.5c0-1.1-.9-2-2-2"/></svg>
